img/icon12.svg

<svg width="81" height="63" viewBox="0 0 81 63" fill="none" xmlns="http://www.w3.org/2000/svg">
<rect width="81" height="63" fill="white"/>
<rect x="1" y="1" width="79" height="61" stroke="black" stroke-width="2"/>
<path d="M24.1918 46.3534H32.5379V37.4005H24.1918V46.3534ZM26.0122 39.2319H30.7396V44.5716H26.0122V39.2319Z" fill="#000105"/>
<path d="M60.3175 37.4005H51.9715V46.3313H60.3175V37.4005ZM58.5082 44.5716H53.7808V39.2595H58.5082V44.5716Z" fill="#000105"/>
<path d="M60.3175 24.9781H51.9715V33.9089H60.3175V24.9781ZM58.5082 32.0995H53.7808V26.7874H58.5082V32.0995Z" fill="#000105"/>
<path d="M37.8775 33.9089H46.2236V24.9781H37.8775V33.9089ZM39.6868 26.7874H44.4142V32.0995H39.6868V26.7874Z" fill="#000105"/>
<path d="M32.1351 24.9781H23.8056V33.9089H32.1351V24.9781ZM30.3258 32.0995H25.5984V26.7874H30.3258V32.0995Z" fill="#000105"/>
<path d="M42.0533 11L18.9183 22.7275V51.8807H65.1773V22.7275L42.0533 11ZM38.1092 50.088V39.1769H45.9974V50.088H38.1092ZM63.3735 50.088H47.8067V37.4006H36.2999V50.088H20.7276V23.8363L42.0533 13.03L63.3735 23.8363V50.088Z" fill="#000105"/>
</svg>

<svg width="81" height="63" fill="none" xmlns="http://www.w3.org/2000/svg"><path fill="#fff" d="M0 0h81v63H0z"/><path stroke="#000" stroke-width="2" d="M1 1h79v61H1z"/><path d="M24.192 46.353h8.346V37.4h-8.346v8.953zm1.82-7.121h4.728v5.34h-4.728v-5.34zM60.318 37.4h-8.346v8.931h8.346v-8.93zm-1.81 7.172h-4.727v-5.313h4.727v5.313zm1.81-19.594h-8.346v8.93h8.346v-8.93zm-1.81 7.121h-4.727v-5.312h4.727V32.1zm-20.631 1.81h8.347v-8.93h-8.346v8.93zm1.81-7.122h4.727V32.1h-4.727v-5.313zm-7.552-1.809h-8.33v8.93h8.33v-8.93zm-1.81 7.121h-4.727v-5.312h4.728V32.1z" fill="#000105"/><path d="M42.053 11L18.918 22.727v29.154h46.26V22.727L42.052 11zM38.11 50.088V39.177h7.888v10.911H38.11zm25.264 0H47.807V37.401H36.3v12.687H20.728V23.836L42.053 13.03l21.32 10.806v26.252z" fill="#000105"/></svg>
